X:1576
T:Fisher's Hornpipe (2nd Setting)
M:C|
K:D
3ABc|dAFA GBAG|FDFD GBAG|FDFD GFGB|AFDF E2 3ABc|
dAFA GBAG|FDFD GBAG|FAdf agece|d2 d2 d2 :|
|:cd|ecAc efge|fdAd fgaf|ecAc efgf|edcB A2 A2|
BGDG BcdB|AFDF ABcA|BcdB AGFE|D2 D2 D2 :|
